X:18
T:Bourree de Reuilly
Z:Jack Campin, 2014
F:http://www.campin.me.uk/Music/YoupNannetteD.abc
S:p26, p1000215.jpg
M:3/8
L:1/8
Q:1/4=120
K:G
D|GBG/B/|dBd|cAc|BA\
D|GBG/B/|dBd|cAF|G2:|
B|dcA/c/|BGB|AFc|BG\
B|dcA/c/|BGB|AFD|G2:|

